.icons/Gruvbox-Plus-Dark/apps/scalable/text-editor.svg

<svg xmlns="http://www.w3.org/2000/svg" style="isolation:isolate" width="256" height="256" viewBox="0 0 256 256">
 <g filter="url(#cSIfnlRFVsYvkSWJonAoFgtMa8oovLlT)">
  <path fill="#ebdbb2" d="M 165.685 11.947 C 239.74 11.947 250.324 22.504 250.324 96.491 L 250.324 155.742 C 250.324 229.728 239.74 240.285 165.685 240.285 L 90.315 240.285 C 16.26 240.285 5.676 229.728 5.676 155.742 L 5.676 96.491 C 5.676 22.504 16.26 11.947 90.315 11.947 L 165.685 11.947 L 165.685 11.947 Z"/>
 </g>
 <g>
  <g opacity=".75">
   <path fill="#d5c4a1" d="M 47.367 46.408 L 47.367 50.486 L 210.466 50.486 L 210.466 46.408 L 47.367 46.408 L 47.367 46.408 Z M 47.367 58.641 L 47.367 62.718 L 210.466 62.718 L 210.466 58.641 L 47.367 58.641 L 47.367 58.641 Z M 47.367 70.873 L 47.367 74.951 L 210.466 74.951 L 210.466 70.873 L 47.367 70.873 L 47.367 70.873 Z M 47.367 83.106 L 47.367 87.183 L 210.466 87.183 L 210.466 83.106 L 47.367 83.106 L 47.367 83.106 Z M 47.367 95.339 L 47.367 99.416 L 210.466 99.416 L 210.466 95.339 L 47.367 95.339 L 47.367 95.339 Z M 47.367 107.571 L 47.367 111.648 L 210.466 111.648 L 210.466 107.571 L 47.367 107.571 L 47.367 107.571 Z M 47.367 119.803 L 47.367 123.881 L 210.466 123.881 L 210.466 119.803 L 47.367 119.803 L 47.367 119.803 Z M 47.367 132.035 L 47.367 136.113 L 210.466 136.113 L 210.466 132.035 L 47.367 132.035 L 47.367 132.035 Z M 47.367 144.268 L 47.367 148.346 L 210.466 148.346 L 210.466 144.268 L 47.367 144.268 L 47.367 144.268 Z M 47.367 156.501 L 47.367 160.578 L 210.466 160.578 L 210.466 156.501 L 47.367 156.501 L 47.367 156.501 Z M 47.367 168.733 L 47.367 172.811 L 210.466 172.811 L 210.466 168.733 L 47.367 168.733 L 47.367 168.733 Z M 47.367 180.965 L 47.367 185.044 L 210.466 185.044 L 210.466 180.965 L 47.367 180.965 L 47.367 180.965 Z M 47.367 193.197 L 47.367 197.275 L 210.579 197.275 L 210.579 193.197 L 47.367 193.197 L 47.367 193.197 Z M 47.367 205.43 L 47.367 209.507 L 80.1 209.507 L 80.1 205.43 L 47.367 205.43 L 47.367 205.43 Z"/>
  </g>
  <g>
   <path fill="#ebdbb2" d="M 131.712 185.369 L 79.987 209.507 L 104.125 157.783 L 109.298 152.609 L 136.885 180.197 L 131.712 185.369 L 131.712 185.369 Z"/>
   <path fill="#665c54" d="M 87.665 193.048 L 79.987 209.507 L 96.447 201.829 C 96.447 201.829 98.075 200.871 97.221 200.018 C 96.367 199.162 93.796 200.04 93.796 200.04 C 93.796 200.04 95.504 197.438 93.79 195.723 C 92.075 194.008 89.473 195.717 89.473 195.717 C 89.473 195.717 90.332 193.128 89.47 192.266 C 88.608 191.404 87.665 193.048 87.665 193.048 Z"/>
   <path fill="#ebdbb2" d="M 104.125 157.783 C 107.574 154.335 113.608 163.818 108.436 168.99 C 117.057 160.368 129.126 172.438 120.505 181.059 C 125.678 175.887 135.161 181.921 131.712 185.369 L 218.621 98.46 L 191.034 70.873 L 104.125 157.783 L 104.125 157.783 Z"/>
   <clipPath id="_clipPath_zdgesefktubGQDN3tLTfSMtTu1lgE5bB">
    <path fill="#ebdbb2" d="M 104.125 157.783 C 107.574 154.335 113.608 163.818 108.436 168.99 C 117.057 160.368 129.126 172.438 120.505 181.059 C 125.678 175.887 135.161 181.921 131.712 185.369 L 218.621 98.46 L 191.034 70.873 L 104.125 157.783 L 104.125 157.783 Z"/>
   </clipPath>
   <g clip-path="url(#_clipPath_zdgesefktubGQDN3tLTfSMtTu1lgE5bB)">
    <g>
     <path fill="#fb4934" d="M 129.759 190.247 L 224.009 97.997 L 213.509 88.747 L 120.634 181.122 L 129.759 190.247 L 129.759 190.247 Z"/>
     <path fill="#fe8019" d="M 120.509 181.247 L 214.759 87.622 L 201.634 75.372 L 108.634 168.122 L 120.509 181.247 L 120.509 181.247 Z"/>
     <path fill="#fe8019" d="M 108.759 168.247 L 202.134 75.247 L 193.134 66.747 L 99.634 159.122 L 108.759 168.247 L 108.759 168.247 Z"/>
    </g>
   </g>
  </g>
  <rect fill="#ebdbb2" width="63.25" height="64.25" x="46.76" y="41.87" transform="matrix(1,0,0,1,0,0)"/>
 </g>
 <g opacity=".2">
  <path fill-rule="evenodd" d="M 49.199 100.837 L 48.413 96.2 L 52.343 95.1 L 69.359 47.667 L 79.694 47.667 L 96.317 95.1 L 100.208 96.2 L 99.422 100.837 L 80.009 100.837 L 79.223 96.2 L 84.41 95.1 L 81.188 85.668 L 63.385 85.668 L 60.084 95.1 L 65.272 96.2 L 64.486 100.837 L 49.199 100.837 L 49.199 100.837 Z M 72.07 60.635 L 65.39 79.813 L 79.223 79.813 L 72.699 60.635 L 72.07 60.635 L 72.07 60.635 Z"/>
 </g>
 <g opacity=".4">
  <linearGradient id="_lgradient_229" x1=".517" x2=".517" y1="0" y2="1" gradientTransform="matrix(244.65,0,0,228.34,5.68,11.95)" gradientUnits="userSpaceOnUse">
   <stop offset="0%" style="stop-color:#ebdbb2"/>
   <stop offset="12.5%" stop-opacity=".098" style="stop-color:#ebdbb2"/>
   <stop offset="92.5%" stop-opacity=".098" style="stop-color:#282828"/>
   <stop offset="100%" stop-opacity=".498" style="stop-color:#282828"/>
  </linearGradient>
  <path fill="url(#_lgradient_229)" fill-rule="evenodd" d="M 165.06803 11.951234 C 169.395994 11.941409 173.723944 11.990533 178.051908 12.088781 C 181.927398 12.167379 185.802873 12.31475 189.678362 12.540721 C 193.1309 12.737216 196.583423 13.022134 200.026115 13.395476 C 203.085193 13.729518 206.144271 14.181458 209.173842 14.741469 C 211.888645 15.242533 214.57394 15.881143 217.219897 16.6573 C 219.619947 17.354858 221.970814 18.219439 224.242988 19.241215 C 226.357793 20.184394 228.384061 21.304417 230.302129 22.591462 C 232.141505 23.829383 233.862851 25.244151 235.436659 26.80629 C 237.000621 28.378252 238.417046 30.087764 239.656409 31.924995 C 240.944972 33.840824 242.066305 35.864728 243.020409 37.967229 C 244.043389 40.246576 244.908985 42.584873 245.617197 44.972292 C 246.394255 47.615155 247.033606 50.297317 247.535265 53.008956 C 248.095924 56.034984 248.548399 59.080665 248.882828 62.13617 C 249.256611 65.574836 249.541856 69.013506 249.738578 72.462003 C 249.964823 76.323139 250.112361 80.194101 250.200884 84.055237 C 250.289421 88.378131 250.338591 92.701032 250.32876 97.014106 L 250.32876 155.225886 C 250.338591 159.54878 250.289421 163.861854 250.200884 168.184747 C 250.112361 172.05571 249.964823 175.916853 249.738578 179.777981 C 249.541856 183.226485 249.256611 186.674975 248.882828 190.103826 C 248.548399 193.15933 248.095924 196.214835 247.535265 199.240851 C 247.033606 201.942664 246.394255 204.624837 245.617197 207.267703 C 244.908985 209.655115 244.043389 212.003235 243.020409 214.272755 C 242.066305 216.38509 240.944972 218.399156 239.656409 220.314999 C 238.417046 222.152226 237.000621 223.871561 235.436659 225.433697 C 233.862851 226.995832 232.141505 228.410601 230.302129 229.648532 C 228.384061 230.935575 226.357793 232.055598 224.242988 232.998768 C 221.970814 234.020552 219.619947 234.885137 217.219897 235.592507 C 214.57394 236.368672 211.888645 237.007276 209.173842 237.498515 C 206.144271 238.068354 203.085193 238.510465 200.026115 238.844519 C 196.583423 239.21785 193.1309 239.502777 189.678362 239.699269 C 185.802873 239.925235 181.927398 240.072615 178.051908 240.161035 C 173.723944 240.249454 169.395994 240.298581 165.06803 240.288762 L 90.941963 240.288762 C 86.614006 240.298581 82.286049 240.249454 77.9581 240.161035 C 74.08261 240.072615 70.20712 239.925235 66.331638 239.699269 C 62.879108 239.502777 59.426578 239.21785 55.983886 238.844519 C 52.924808 238.510465 49.865733 238.068354 46.836162 237.498515 C 44.121356 237.007276 41.436057 236.368672 38.7901 235.592507 C 36.390053 234.885137 34.039187 234.020552 31.767009 232.998768 C 29.652213 232.055598 27.625943 230.935575 25.707871 229.648532 C 23.868489 228.410601 22.147143 226.995832 20.573343 225.433697 C 19.009377 223.871561 17.592955 222.152226 16.353586 220.314999 C 15.065036 218.399156 13.943701 216.38509 12.989584 214.272755 C 11.966612 212.003235 11.101021 209.655115 10.392811 207.267703 C 9.615746 204.624837 8.976389 201.942664 8.47474 199.240851 C 7.914072 196.214835 7.461604 193.15933 7.127172 190.103826 C 6.753394 186.674975 6.468142 183.226485 6.271417 179.777981 C 6.045183 175.916853 5.897639 172.05571 5.809112 168.184747 C 5.720586 163.861854 5.671405 159.54878 5.681241 155.225886 L 5.681241 97.014106 C 5.671405 92.701032 5.720586 88.378131 5.809112 84.055237 C 5.897639 80.194101 6.045183 76.323139 6.271417 72.462003 C 6.468142 69.013506 6.753394 65.574836 7.127172 62.13617 C 7.461604 59.080665 7.914072 56.034984 8.47474 53.008956 C 8.976389 50.297317 9.615746 47.615155 10.392811 44.972292 C 11.101021 42.584873 11.966612 40.246576 12.989584 37.967229 C 13.943701 35.864728 15.065036 33.840824 16.353586 31.924995 C 17.592955 30.087764 19.009377 28.378252 20.573343 26.80629 C 22.147143 25.244151 23.868489 23.829383 25.707871 22.591462 C 27.625943 21.304417 29.652213 20.184394 31.767009 19.241215 C 34.039187 18.219439 36.390053 17.354858 38.7901 16.6573 C 41.436057 15.881143 44.121356 15.242533 46.836162 14.741469 C 49.865733 14.181458 52.924808 13.729518 55.983886 13.395476 C 59.426578 13.022134 62.879108 12.737216 66.331638 12.540721 C 70.20712 12.31475 74.08261 12.167379 77.9581 12.088781 C 82.286049 11.990533 86.614006 11.941409 90.941963 11.951234 L 165.06803 11.951234 Z M 165.077876 15.959741 C 169.376317 15.949916 173.674759 15.99904 177.973216 16.087463 C 181.799522 16.175886 185.625827 16.323257 189.452133 16.539402 C 192.835809 16.735898 196.219486 17.010992 199.583486 17.384332 C 202.554026 17.698726 205.514751 18.131016 208.445953 18.681203 C 211.023049 19.152792 213.580483 19.761928 216.098564 20.498786 C 218.321569 21.147221 220.495374 21.952852 222.600334 22.896029 C 224.508571 23.750785 226.338116 24.762737 228.069293 25.922059 C 229.692286 27.012609 231.207063 28.260355 232.59398 29.645648 C 233.980897 31.030941 235.230091 32.543956 236.331763 34.165043 C 237.492434 35.894202 238.505568 37.711787 239.361333 39.607968 C 240.305606 41.720292 241.112187 43.891565 241.761369 46.102139 C 242.508934 48.617282 243.108947 51.161898 243.590914 53.735987 C 244.131912 56.663768 244.564709 59.6112 244.889308 62.578282 C 245.263091 65.938355 245.538505 69.308252 245.735227 72.687976 C 245.951626 76.509812 246.10901 80.321821 246.187687 84.143656 C 246.276225 88.437084 246.325394 92.720685 246.325394 97.014106 C 246.325394 97.014106 246.325394 97.014106 246.325394 97.014106 L 246.325394 155.225886 C 246.325394 155.225886 246.325394 155.225886 246.325394 155.225886 C 246.325394 159.519306 246.276225 163.802907 246.187687 168.096328 C 246.10901 171.918164 245.951626 175.739999 245.735227 179.552015 C 245.538505 182.931739 245.263091 186.301629 244.889308 189.671533 C 244.564709 192.628784 244.131912 195.576216 243.590914 198.503994 C 243.108947 201.078094 242.508934 203.622706 241.761369 206.137845 C 241.112187 208.358253 240.305606 210.5197 239.361333 212.63202 C 238.505568 214.528209 237.492434 216.355617 236.331763 218.074952 C 235.230091 219.705853 233.980897 221.218876 232.59398 222.604172 C 231.207063 223.979634 229.692286 225.227385 228.069293 226.317935 C 226.338116 227.477251 224.508571 228.489201 222.600334 229.343951 C 220.495374 230.296956 218.321569 231.092775 216.098564 231.741198 C 213.580483 232.478056 211.023049 233.087202 208.445953 233.558787 C 205.514751 234.108972 202.554026 234.541264 199.583486 234.865483 C 196.219486 235.228995 192.835809 235.513922 189.452133 235.70058 C 185.625827 235.916726 181.799522 236.073926 177.973216 236.152526 C 173.674759 236.25078 169.376317 236.290072 165.077876 236.290072 C 165.077876 236.290072 165.077876 236.290072 165.06803 236.290072 L 90.941963 236.290072 C 90.932125 236.290072 90.932125 236.290072 90.932125 236.290072 C 86.633683 236.290072 82.335234 236.25078 78.036784 236.152526 C 74.210479 236.073926 70.384173 235.916726 66.557868 235.70058 C 63.174195 235.513922 59.790522 235.228995 56.426518 234.865483 C 53.455967 234.541264 50.495253 234.108972 47.564048 233.558787 C 44.986944 233.087202 42.429517 232.478056 39.911433 231.741198 C 37.688439 231.092775 35.514626 230.296956 33.409665 229.343951 C 31.501429 228.489201 29.671886 227.477251 27.940703 226.317935 C 26.31772 225.227385 24.802935 223.979634 23.416022 222.604172 C 22.029109 221.218876 20.779904 219.705853 19.678243 218.074952 C 18.517564 216.355617 17.504428 214.528209 16.648674 212.63202 C 15.704392 210.5197 14.897819 208.358253 14.248626 206.137845 C 13.50107 203.622706 12.901057 201.078094 12.419081 198.503994 C 11.878086 195.576216 11.445291 192.628784 11.120694 189.671533 C 10.746916 186.301629 10.471501 182.931739 10.274776 179.552015 C 10.058378 175.739999 9.900997 171.918164 9.822307 168.096328 C 9.733781 163.802907 9.6846 159.519306 9.6846 155.225886 C 9.6846 155.225886 9.6846 155.225886 9.6846 155.225886 L 9.6846 97.014106 C 9.6846 97.014106 9.6846 97.014106 9.6846 97.014106 C 9.6846 92.720685 9.733781 88.437084 9.822307 84.143656 C 9.900997 80.321821 10.058378 76.509812 10.274776 72.687976 C 10.471501 69.308252 10.746916 65.938355 11.120694 62.578282 C 11.445291 59.6112 11.878086 56.663768 12.419081 53.735987 C 12.901057 51.161898 13.50107 48.617282 14.248626 46.102139 C 14.897819 43.891565 15.704392 41.720292 16.648674 39.607968 C 17.504428 37.711787 18.517564 35.894202 19.678243 34.165043 C 20.779904 32.543956 22.029109 31.030941 23.416022 29.645648 C 24.802935 28.260355 26.31772 27.012609 27.940703 25.922059 C 29.671886 24.762737 31.501429 23.750785 33.409665 22.896029 C 35.514626 21.952852 37.688439 21.147221 39.911433 20.498786 C 42.429517 19.761928 44.986944 19.152792 47.564048 18.681203 C 50.495253 18.131016 53.455967 17.698726 56.426518 17.384332 C 59.790522 17.010992 63.174195 16.735898 66.557868 16.539402 C 70.384173 16.323257 74.210479 16.175886 78.036784 16.087463 C 82.335234 15.99904 86.633683 15.949916 90.932125 15.959741 C 90.932125 15.959741 90.932125 15.959741 90.941963 15.959741 L 165.06803 15.959741 C 165.077876 15.959741 165.077876 15.959741 165.077876 15.959741 Z"/>
 </g>
</svg>

<svg width="256" height="256" style="isolation:isolate" version="1.1" xmlns="http://www.w3.org/2000/svg">
  <g filter="url(#a)">
    <linearGradient id="b" x1=".50002" x2=".50002" y1="-.00051239" y2="1" gradientTransform="matrix(244.65,0,0,228.34,5.676,11.947)" gradientUnits="userSpaceOnUse">
      <stop stop-color="#ebdbb2" offset="0"/>
      <stop stop-color="#ebdbb2" offset="1"/>
    </linearGradient>
    <path d="m165.68 11.947c72.707 0 84.639 12.053 84.639 84.544v59.251c0 72.561-11.932 84.543-84.639 84.543h-75.37c-72.294 0-84.639-11.982-84.639-84.543v-59.251c0-72.491 12.329-84.544 84.639-84.544z" fill="url(#b)"/>
  </g>
  <defs>
    <clipPath id="_clipPath_zdgesefktubGQDN3tLTfSMtTu1lgE5bB">
      <path d="m104.12 157.78c3.449-3.448 9.483 6.035 4.311 11.207 8.621-8.622 20.69 3.448 12.069 12.069 5.173-5.172 14.656 0.862 11.207 4.31l86.909-86.909-27.587-27.587-86.909 86.91z" fill="#ebdbb2"/>
    </clipPath>
  </defs>
  <g opacity=".4">
    <linearGradient id="c" x1=".517" x2=".517" y2="1" gradientTransform="matrix(244.65,0,0,228.34,5.68,11.95)" gradientUnits="userSpaceOnUse">
      <stop stop-color="#d5c4a1" offset="0"/>
      <stop stop-color="#ebdbb2" stop-opacity=".098" offset=".125"/>
      <stop stop-color="#282828" stop-opacity=".098039" offset=".925"/>
      <stop stop-color="#282828" stop-opacity=".49804" offset="1"/>
    </linearGradient>
    <path d="m165.07 11.951c4.328-0.01 8.656 0.04 12.984 0.138 3.875 0.078 7.7436 0.25854 11.62 0.48454 3.453 0.196 6.8876 0.5327 10.33 0.9057 3.06 0.335 6.0892 0.83409 9.1192 1.3941 2.7131 0.50032 5.3525 1.181 7.9999 1.9571 2.3983 0.69679 4.7544 1.61 7.0323 2.6338 2.1121 0.94124 4.0427 2.0439 5.9631 3.3319 1.8405 1.2399 3.5996 2.7014 5.1741 4.2652 1.5652 1.5692 2.886 3.1628 4.1277 4.9987 1.2864 1.9174 2.4086 3.8707 3.3603 5.9744 1.0207 2.2746 1.9193 4.5772 2.628 6.9675 0.77696 2.6443 1.4779 5.3272 1.9787 8.0374 0.56201 3.0246 1.0626 6.0601 1.3989 9.1181 0.374 3.439 0.70873 6.8493 0.90573 10.297 0.226 3.861 0.42171 7.7394 0.51071 11.6 0.088 4.323 0.138 8.646 0.128 12.96v58.21c0.01 4.324-0.04 8.637-0.128 12.96-0.085 3.8668-0.28821 7.7331-0.51114 11.595-0.19655 3.4488-0.53822 6.9467-0.91224 10.38-0.33634 3.0613-0.82936 6.0316-1.3914 9.0596-0.50199 2.7066-1.1867 5.3458-1.9626 7.987-0.7071 2.3908-1.5665 4.6263-2.5888 6.9002-0.94995 2.1048-2.1624 4.2292-3.4512 6.1454-1.2392 1.8377-2.5377 3.3902-4.1052 4.9572-1.5746 1.5638-3.412 3.0712-5.2525 4.3111-1.9201 1.2879-3.8611 2.3701-5.9729 3.3114-2.3498 1.0736-4.5744 1.8717-6.9323 2.584-2.6776 0.81656-5.2934 1.4166-7.976 1.948-3.0309 0.56603-6.051 1.0612-9.1165 1.3921-3.5041 0.40869-6.8203 0.68433-10.336 0.90377-3.875 0.226-7.789 0.40013-11.665 0.48813-4.328 0.088-8.6314 0.15082-12.959 0.14082h-74.126c-4.328 0.01-8.6566-0.0545-12.985-0.14247-3.9049-0.0955-7.7449-0.24667-11.628-0.49085-3.4941-0.21923-7.0445-0.5149-10.452-0.92805-3.1873-0.37665-5.9337-0.7937-8.9951-1.3902-2.833-0.56139-5.3421-1.1637-7.9464-1.9566-2.4295-0.73175-4.8105-1.6266-7.0523-2.6548-2.139-0.97893-4.0617-2.0635-5.9983-3.3731-1.8405-1.2399-3.5141-2.6495-5.0886-4.2133-1.5676-1.5671-2.9061-3.1787-4.1454-5.0164-1.2884-1.9162-2.4021-3.8332-3.3518-5.9379-1.0223-2.2739-1.9238-4.5236-2.6309-6.9144-0.77585-2.6412-1.4977-5.3053-1.9996-8.0119-0.56202-3.028-1.0938-6.1087-1.4301-9.17-0.37402-3.4341-0.72617-6.8459-0.92272-10.295-0.22292-3.8613-0.42179-7.7427-0.50684-11.61-0.09185-4.3194-0.13452-8.6396-0.128-12.96v-58.21c-0.01-4.314 0.04-8.637 0.128-12.96 0.089-3.86 0.28015-7.7353 0.50615-11.596 0.197-3.448 0.54883-6.857 0.92283-10.296 0.335-3.055 0.87336-6.1638 1.4344-9.1898 0.50085-2.7102 1.1807-5.2262 1.9577-7.8705 0.70872-2.3902 1.7549-4.9868 2.7756-7.2614 0.95209-2.1037 1.9632-3.7998 3.2499-5.7172 1.2418-1.8358 2.594-3.4604 4.1593-5.0296 1.5745-1.5638 3.3273-3.0214 5.1678-4.2614 1.9201-1.2879 3.8238-2.3848 5.9356-3.3261 2.278-1.0238 4.5428-1.9236 6.9411-2.6204 2.6474-0.77617 5.2743-1.4761 7.9874-1.9764 3.0317-0.56124 6.1381-1.085 9.203-1.4208 3.443-0.373 6.8398-0.71288 10.293-0.90888 3.875-0.226 7.7331-0.41514 11.609-0.49314 4.328-0.098 8.6625-0.14613 12.991-0.13613zm0.01 4.009c4.298-0.01 8.597 0.039 12.895 0.127 3.827 0.089 7.6466 0.26854 11.474 0.48454 3.383 0.197 6.7724 0.43946 10.136 0.81246 2.971 0.315 5.9391 0.74869 8.8701 1.2987 2.5807 0.47339 5.1059 1.0723 7.6238 1.8101 2.2193 0.6492 4.4135 1.4563 6.5231 2.4032 1.9054 0.85272 3.7179 1.8543 5.4527 3.0153 1.6245 1.0927 3.1568 2.3505 4.5413 3.7347 1.3858 1.385 2.6374 2.8981 3.738 4.519 1.1601 1.7266 2.1737 3.5473 3.03 5.443 0.94487 2.1083 1.7467 4.2779 2.4 6.494 0.74152 2.5113 1.352 5.0594 1.829 7.634 0.54 2.928 0.974 5.875 1.298 8.842 0.374 3.36 0.65 6.73 0.846 10.11 0.217 3.822 0.374 7.634 0.453 11.456 0.088 4.293 0.137 8.577 0.137 12.87v58.212c0 4.293-0.049 8.577-0.137 12.87-0.082 3.8211-0.0546 7.643-0.27458 11.459-0.196 3.38-0.65042 6.7474-1.0244 10.117-0.3245 2.9589-0.75746 5.9049-1.298 8.832-0.47731 2.5747-1.0881 5.1228-1.83 7.634-0.65169 2.2166-1.4536 4.3863-2.4 6.494-0.8542 1.8968-1.8678 3.7176-3.03 5.443-1.0976 1.6263-2.349 3.1432-3.737 4.53-1.3876 1.3779-2.9027 2.6211-4.525 3.713-1.7345 1.161-3.564 2.1732-5.469 3.026-2.1078 0.95119-4.2802 1.7522-6.501 2.397-2.5179 0.7378-5.0723 1.3446-7.653 1.818-2.931 0.55-5.8828 0.98162-8.8538 1.3056-3.364 0.364-6.7562 0.64938-10.139 0.83638-3.827 0.216-7.6776 0.36018-11.505 0.43918-4.298 0.098-8.5724 0.14982-12.87 0.14982h-74.146c-4.298 0-8.5976-0.0545-12.896-0.15147-3.8291-0.082-7.6582-0.26152-11.482-0.48085-3.3834-0.19001-6.7587-0.42545-10.127-0.79268-2.97-0.32174-5.9265-0.7574-8.863-1.306-2.5807-0.47339-5.1351-1.0802-7.653-1.818-2.2208-0.64482-4.3673-1.4321-6.4751-2.3833-1.9053-0.85272-3.7547-1.8723-5.4895-3.0333-1.622-1.0922-3.1431-2.3423-4.5303-3.7205-1.3882-1.3864-2.64-2.903-3.738-4.529-1.1622-1.7254-2.1758-3.5462-3.03-5.443-0.94645-2.1077-1.7483-4.2774-2.4-6.494-0.74152-2.5113-1.352-5.0594-1.829-7.634-0.54054-2.9271-0.9735-5.8731-1.298-8.832-0.374-3.37-0.65-6.74-0.846-10.12-0.21993-3.8156-0.37096-7.6349-0.453-11.456-0.08992-4.2894-0.13559-8.5796-0.137-12.87v-58.212c0-4.293 0.049-8.577 0.137-12.87 0.079-3.822 0.236-7.634 0.453-11.456 0.197-3.38 0.472-6.75 0.846-10.11 0.324-2.967 0.757-5.914 1.298-8.842 0.47732-2.5747 1.0915-5.1375 1.8334-7.6487 0.65331-2.2161 1.4517-4.371 2.3966-6.4793 0.85634-1.8957 1.8699-3.7164 3.03-5.443 1.1003-1.6212 2.3515-3.1346 3.737-4.52 1.3849-1.3839 2.9002-2.6307 4.525-3.723 1.7345-1.161 3.564-2.1732 5.469-3.026 2.1096-0.94691 4.2817-1.7478 6.501-2.397 2.5179-0.7378 5.0723-1.3446 7.653-1.818 2.931-0.55 5.892-0.982 8.863-1.297 3.364-0.373 6.7432-0.64645 10.126-0.84345 3.8239-0.21443 7.6549-0.36667 11.484-0.45355 4.298-0.088 8.597-0.137 12.895-0.127z" fill="url(#c)" fill-rule="evenodd"/>
  </g>
  <g transform="translate(-1.0384 -.089775)" style="isolation:isolate">
    <g>
      <path d="m47.367 46.408v4.078h163.1v-4.078zm0 12.233v4.077h163.1v-4.077zm0 12.232v4.078h163.1v-4.078zm0 12.233v4.077h163.1v-4.077zm0 12.233v4.077h163.1v-4.077zm0 12.232v4.077h163.1v-4.077zm0 12.232v4.078h163.1v-4.078zm0 12.232v4.078h163.1v-4.078zm0 12.233v4.078h163.1v-4.078zm0 12.233v4.077h163.1v-4.077zm0 12.232v4.078h163.1v-4.078zm0 12.232v4.079h163.1v-4.079zm0 12.232v4.078h163.21v-4.078zm0 12.233v4.077h32.733v-4.077z" fill="#928374"/>
    </g>
    <path d="m131.71 185.37-51.725 24.138 24.138-51.724 5.173-5.174 27.587 27.588z" fill="#ebdbb2" stroke="#d5c4a1"/>
    <path d="m87.665 193.05-7.678 16.459 16.46-7.678s1.628-0.958 0.774-1.811c-0.854-0.856-3.425 0.022-3.425 0.022s1.708-2.602-6e-3 -4.317c-1.715-1.715-4.317-6e-3 -4.317-6e-3s0.859-2.589-3e-3 -3.451-1.805 0.782-1.805 0.782z" fill="#665c54"/>
    <path d="m104.12 157.78c3.449-3.448 9.483 6.035 4.311 11.207 8.621-8.622 20.69 3.448 12.069 12.069 5.173-5.172 14.656 0.862 11.207 4.31l86.909-86.909-27.587-27.587z" fill="#ebdbb2"/>
    <clipPath>
      <path d="m104.12 157.78c3.449-3.448 9.483 6.035 4.311 11.207 8.621-8.622 20.69 3.448 12.069 12.069 5.173-5.172 14.656 0.862 11.207 4.31l86.909-86.909-27.587-27.587z" fill="#ebdbb2"/>
    </clipPath>
    <g clip-path="url(#_clipPath_zdgesefktubGQDN3tLTfSMtTu1lgE5bB)">
      <path d="m129.76 190.25 94.25-92.25-10.5-9.25-92.875 92.375z" fill="#fb4934"/>
      <path d="m120.51 181.25 94.25-93.625-13.125-12.25-93 92.75z" fill="#fe8019"/>
      <path d="m108.76 168.25 93.375-93-9-8.5-93.5 92.375z" fill="#fe8019"/>
    </g>
    <rect x="46.76" y="41.87" width="63.25" height="64.25" fill="#ebdbb2"/>
    <path transform="translate(.005)" d="m49.199 100.84-0.786-4.637 3.93-1.1 17.016-47.433h10.335l16.623 47.433 3.891 1.1-0.786 4.637h-19.413l-0.786-4.637 5.187-1.1-3.222-9.432h-17.803l-3.301 9.432 5.188 1.1-0.786 4.637zm22.871-40.202-6.68 19.178h13.833l-6.524-19.178z" fill="#504945" fill-rule="evenodd" style="isolation:isolate"/>
  </g>
</svg>
